X:226
T:Toast. JC.231
T:General Toast, aka. JC.231
R:Jig
S:John Clare,Poet,Helpstone (1793-1864)
N:Toast,toast,toast.MRBars 3.5.7. qu follows dotteed qu in MS, given here
N:as semi-qu’s.
O:England
A:Northamptonshire
Z:vmp.P. Headford
M:6/8
L:1/8
Q:3/8=100
K:G
G>AG g>fg|\
efed3|G>AG g>fg|e3d3|!
G>AG g>fg|fgfd3|cdc B>cB|” crots”A3G3:|!
|:B>cd ded|(dc)B A2G|ded dcB|A3G3|!
Bcd ded|dcBA2G|cdc BcB|A3F3:|
W:Here’s to the Girl…

